X: 31226
T: Paddy Fahey's
R: jig
M: 6/8
K: Cmajor
|:CEG cCc|Ged cGE|CFA f2d|edc BGE|
CEG cCc|Ged cGE|F2D G,B,D|1 ECC C2G,:|2 ECC C2 f||
|:gec c2B|Acf fef|Gce edc|Bcd def|
e/f/ge f2g|edc def|dec fdB|1 dcB c2d/e/f:|2 dcB cGE||

